X: 34960
T: Rocky Road To Mount Collins, The
R: polka
M: 2/4
K: Gmajor
|:G/E/|D>E DE|G2 DG|Bd/B/ AA/B/|AG E/F/G/E/|
D>E DE|G2 GD/G/|Bd/B/ AA/B/|1 AG G:|2 AG G3/2||
|:A/|Bd d^c/d/|ed BA|Bd GG/A/|Bd AG/A/|
[1 Bd- d^c/d/|e/f/e/d/ B/A/G|B/c/d AA/B/|AG G3/2:|
[2 Bd- d^c/d/|ed B/A/G/A/|Bd A>B|AG G||

